_assets/images/gallery/s06e07-01.svg

<svg xmlns="http://www.w3.org/2000/svg" width="500" height="550" viewBox="0 0 500 550"><path d="M409.42 137.42C400.6 118.2 394.91 94.8 379 80.21 352.59 63 320.66 59.12 291.54 48.63c-3.68-1.54-5 3.72-7.88 5-17.36 10.42-39.46 7.3-58.66 4.87-7.1-1.26-13.56-4.12-18.56-9.67a3.16 3.16 0 00-2.72-.43c-30.43 11-63.14 16.58-90.46 34.78-23.5 30.35-34.46 68.24-48.06 103.67-23.59 59.08-28.11 123-26.2 186a145 145 0 002.72 33.3 6.66 6.66 0 001.33 3.22c6.32 5.76 6.46 14.67 8.49 22.43.31 1.47 1 1.81 2.41 1.47 12.51-3.2 26.23-2.34 38.61 1.18 3.12 1 3.16 1.13 3.73-2 1.45-8 3.48-15.78 9.19-22.06a5.17 5.17 0 001.14-3.3c-1.08-8.1 0-16 1.53-23.93 1.19-8.37 4.89-16.88 4.38-25.31-1-3.31.13-6.43.37-9.58 1.26-11.18 6-24.61-5.15-32.56-5.69-6.88 9.45-5.51 11.82-16.18 1.34-2.86 2.87-5.64 4.28-8.46 2.21 47.15-3 93.21 3.1 140 1.41 10.78-1.37 19.55 0 30.81.94 5.1 1.4 5.42 6.62 4.82 24.35-3.76 58.38-1.51 83-2.09 45-2.79 102.07-4.81 146.65 2.93 1.36.23 2.77.33 3.35-1.44 2.84-8.59.53-15.56 1.5-25.63.87-9 2.74-16.47 3.55-25.44q.3-61.72.62-123.47l.41-.08c.5 7.23 12.42 8.78 10.93 15.93-2.92 3.84-2.67 8-1.61 12.34 3.05 11.87 5.55 24 10.45 35.29 1.35 3.61 1.51 7.13-.51 10.66-5.47 9-1.69 19.56-.79 29.26 1.72 8.67-.95 10.27 5.33 17.63 3.31 5.85 3.11 21.26 11.44 21.41 12.55-3.91 25.32-1.08 37.8 1.58 2.67.5 2.68.27 3.09-2.33.83-5.36 1.69-10.73 2.9-16 .36-4.69 5.08-7.12 5.56-11.78 3.05-18.5 2.09-37.3 3.29-56 6.89-74.66-23.29-144.57-51.11-212.05z" fill="#262521" stroke="#262521" stroke-linecap="round" stroke-linejoin="round" stroke-width="3"/><path d="M51.43 409.51S80.08 400 96.58 412m305.71 0s25.94-8.31 43.55 0" fill="none" stroke="#636363" stroke-linecap="round" stroke-linejoin="round"/><path d="M347.66 104.51s-176.66 1.82-188.4 2.86S113 146 115.55 149.08s15 39.16 15 60-5.87 40.66 0 42.22 13.7 4.17 13.7 4.17-31.93 217.1-28 219.71 76.15 11.55 106.16 11 60.77-9.18 60.77-9.18l10.13-12.29s53.7 21.3 82.4 8.26l-17.32-130.34s9.78-5.85 9.78-8.46-20.53-85-24.44-91.21-31.73-32.1-31.73-32.1l27.86-96.44 13.7-5.21z" fill="#97929b" stroke="#262521" stroke-linecap="round" stroke-linejoin="round" stroke-width="3"/><path d="M122.79 146.67s34.64-1.69 38.86 33.78l171.2-64.78m-25.96 98.47s-31.46 68.64-32 81.24 77.1 14.19 87 37.25m-54.51-103.17l30.37 15.65m-138.94-78.72s58.94 122.76 78.52 132.76M146.57 153.52S143.09 196 134 217.47m15.68 39l84.61 27.04m-68.97-22.04l39.38 116.64m87.81-73.24l-23.59 27.76m38.46-24.2l-7.2 53.63" fill="none" stroke="#636363" stroke-linecap="round" stroke-linejoin="round"/><path fill="none" stroke="#636363" stroke-linecap="round" stroke-linejoin="round" d="M332.94 314.93l4.81 71.63-103.46 19.38m61.53 53.49l33.91-71.37m5.56-38.16l18.71-6.55m-9.41 3.29l1.35 116.85s11.56 5.89 24.68 5.89"/></svg>

<svg xmlns="http://www.w3.org/2000/svg" width="500" height="550" viewBox="0 0 500 550"><path d="M409.42 137.42C400.6 118.2 394.91 94.8 379 80.21 352.59 63 320.66 59.12 291.54 48.63c-3.68-1.54-5 3.72-7.88 5-17.36 10.42-39.46 7.3-58.66 4.87-7.1-1.26-13.56-4.12-18.56-9.67a3.16 3.16 0 00-2.72-.43c-30.43 11-63.14 16.58-90.46 34.78-23.5 30.35-34.46 68.24-48.06 103.67-23.59 59.08-28.11 123-26.2 186a145 145 0 002.72 33.3 6.66 6.66 0 001.33 3.22c6.32 5.76 6.46 14.67 8.49 22.43.31 1.47 1 1.81 2.41 1.47 12.51-3.2 26.23-2.34 38.61 1.18 3.12 1 3.16 1.13 3.73-2 1.45-8 3.48-15.78 9.19-22.06a5.17 5.17 0 001.14-3.3c-1.08-8.1 0-16 1.53-23.93 1.19-8.37 4.89-16.88 4.38-25.31-1-3.31.13-6.43.37-9.58 1.26-11.18 6-24.61-5.15-32.56-5.69-6.88 9.45-5.51 11.82-16.18 1.34-2.86 2.87-5.64 4.28-8.46 2.21 47.15-3 93.21 3.1 140 1.41 10.78-1.37 19.55 0 30.81.94 5.1 1.4 5.42 6.62 4.82 24.35-3.76 58.38-1.51 83-2.09 45-2.79 102.07-4.81 146.65 2.93 1.36.23 2.77.33 3.35-1.44 2.84-8.59.53-15.56 1.5-25.63.87-9 2.74-16.47 3.55-25.44q.3-61.72.62-123.47l.41-.08c.5 7.23 12.42 8.78 10.93 15.93-2.92 3.84-2.67 8-1.61 12.34 3.05 11.87 5.55 24 10.45 35.29 1.35 3.61 1.51 7.13-.51 10.66-5.47 9-1.69 19.56-.79 29.26 1.72 8.67-.95 10.27 5.33 17.63 3.31 5.85 3.11 21.26 11.44 21.41 12.55-3.91 25.32-1.08 37.8 1.58 2.67.5 2.68.27 3.09-2.33.83-5.36 1.69-10.73 2.9-16 .36-4.69 5.08-7.12 5.56-11.78 3.05-18.5 2.09-37.3 3.29-56 6.89-74.66-23.29-144.57-51.11-212.05z" fill="#262521" stroke="#262521" stroke-linecap="round" stroke-linejoin="round" stroke-width="3"/><path d="M51.43 409.51S80.08 400 96.58 412M402.29 412s25.94-8.31 43.55 0" fill="none" stroke="#636363" stroke-linecap="round" stroke-linejoin="round"/><path d="M347.66 104.51s-176.66 1.82-188.4 2.86S113 146 115.55 149.08s15 39.16 15 60-5.87 40.66 0 42.22 13.7 4.17 13.7 4.17-31.93 217.1-28 219.71 76.15 11.55 106.16 11 60.77-9.18 60.77-9.18l10.13-12.29s53.7 21.3 82.4 8.26l-17.32-130.34s9.78-5.85 9.78-8.46-20.53-85-24.44-91.21-31.73-32.1-31.73-32.1l27.86-96.44 13.7-5.21z" fill="#97929b" stroke="#262521" stroke-linecap="round" stroke-linejoin="round" stroke-width="3"/><path d="M122.79 146.67s34.64-1.69 38.86 33.78l171.2-64.78M306.89 214.14s-31.46 68.64-32 81.24 77.1 14.19 87 37.25M307.38 229.46l30.37 15.65M198.81 166.39s58.94 122.76 78.52 132.76M146.57 153.52S143.09 196 134 217.47M149.68 256.47l84.61 27.04M165.32 261.47l39.38 116.64M292.51 304.87l-23.59 27.76M307.38 308.43l-7.2 53.63" fill="none" stroke="#636363" stroke-linecap="round" stroke-linejoin="round"/><path fill="none" stroke="#636363" stroke-linecap="round" stroke-linejoin="round" d="M332.94 314.93l4.81 71.63-103.46 19.38M295.82 459.43l33.91-71.37M335.29 349.9l18.71-6.55M344.59 346.64l1.35 116.85s11.56 5.89 24.68 5.89"/></svg>
